brandFactory_export/1.Light/Libreria digital_1Light.svg

<?xml version="1.0" encoding="UTF-8"?>
<svg width="24px" height="24px" viewBox="0 0 24 24" version="1.1" xmlns="http://www.w3.org/2000/svg" xmlns:xlink="http://www.w3.org/1999/xlink">
    <title>1.Light/Libreria digital_1Light</title>
    <g id="Symbols" stroke="none" stroke-width="1" fill="none" fill-rule="evenodd">
        <g id="1.Light/Libreria-digital_1Light" fill="#5CB615" fill-rule="nonzero">
            <path d="M13.7983193,19.2487395 C11.1092437,19.3294118 8.94789916,20.0554622 7.88235294,20.492437 L7.88235294,11.6184874 C10.1579832,10.512605 12.7630252,10.4319328 13.7983193,10.4453782 L13.7983193,19.2487395 Z M0.98487395,10.4453782 C2.01344538,10.4218487 4.62521008,10.5159664 6.90084034,11.6218487 L6.90084034,20.492437 C5.01512605,19.7361345 3.01512605,19.3159664 0.98487395,19.2487395 L0.98487395,10.4453782 Z M4.14789916,6.55966387 C4.14789916,5.71932773 4.36302521,5.07731092 4.78319328,4.65378151 C5.21680672,4.21680672 5.89243697,3.99495798 6.78655462,3.99495798 L20.0067227,3.98823529 C20.9008403,3.98823529 21.5731092,4.21008403 22.010084,4.64705882 C22.4302521,5.07058824 22.6453782,5.7092437 22.6453782,6.55294118 L22.6453782,12.6605042 C22.6453782,13.5042017 22.4302521,14.1495798 22.010084,14.5798319 C21.5731092,15.0268908 20.9008403,15.2521008 20.010084,15.2521008 L14.7865546,15.2554622 L14.7865546,9.97815126 C14.7865546,9.72605042 14.5882353,9.51764706 14.3327731,9.49747899 C14.1781513,9.48403361 10.5512605,9.22521008 7.39495798,10.7882353 C6.31596639,10.2571429 5.18655462,9.93445378 4.15462185,9.74621849 L4.14789916,6.55966387 Z M20.0033613,16.2201681 C21.1697479,16.2201681 22.0840336,15.8941176 22.712605,15.2521008 C23.3176471,14.6336134 23.6235294,13.7630252 23.6235294,12.6605042 L23.6235294,6.55294118 C23.6235294,5.45042017 23.3142857,4.58319328 22.7092437,3.97142857 C22.0840336,3.34285714 21.1731092,3.02016807 20.0067227,3.02016807 L6.78655462,3.02689076 C5.62016807,3.02689076 4.7092437,3.34621849 4.08067227,3.97478992 C3.47563025,4.58655462 3.16638655,5.45378151 3.16638655,6.55630252 L3.16638655,9.58823529 C1.65714286,9.40672269 0.541176471,9.48739496 0.453781513,9.49411765 C0.198319328,9.51764706 1.77635684e-15,9.72605042 1.77635684e-15,9.98151261 L1.77635684e-15,19.7260504 C1.77635684e-15,19.994958 0.218487395,20.2067227 0.490756303,20.2067227 C4.26890756,20.2067227 7.13277311,21.6554622 7.15966387,21.6689076 C7.2302521,21.7058824 7.30756303,21.7226891 7.38823529,21.7226891 C7.39831933,21.7226891 7.40840336,21.7159664 7.41848739,21.7159664 C7.48571429,21.712605 7.55294118,21.6957983 7.61680672,21.6689076 C7.64369748,21.6554622 10.507563,20.2067227 14.2890756,20.2067227 C14.5613445,20.2067227 14.7798319,19.9915966 14.7798319,19.7226891 L14.7798319,18.2 L23.1058824,18.2 C23.3781513,18.2 23.5966387,17.9848739 23.5966387,17.7159664 C23.5932773,17.4470588 23.3747899,17.2319328 23.1058824,17.2319328 L14.7798319,17.2319328 L14.7798319,16.2201681 L20.0033613,16.2201681 Z" id="Libreria-digital_1Light"></path>
        </g>
    </g>
</svg>

<svg width="24" height="24" viewBox="0 0 24 24" xmlns="http://www.w3.org/2000/svg"><path d="M13.798 19.249c-2.689.08-4.85.806-5.916 1.243v-8.874c2.276-1.105 4.881-1.186 5.916-1.173v8.804zM.985 10.445c1.028-.023 3.64.071 5.916 1.177v8.87A17.434 17.434 0 00.985 19.25v-8.804zM4.148 6.56c0-.84.215-1.483.635-1.906.434-.437 1.11-.659 2.004-.659l13.22-.007c.894 0 1.566.222 2.003.66.42.423.635 1.061.635 1.905v6.108c0 .843-.215 1.489-.635 1.919-.437.447-1.11.672-2 .672l-5.223.003V9.978a.487.487 0 00-.454-.48c-.155-.014-3.782-.273-6.938 1.29-1.079-.53-2.208-.854-3.24-1.042L4.148 6.56zm15.855 9.66c1.167 0 2.081-.326 2.71-.968.605-.618.91-1.489.91-2.591V6.553c0-1.103-.309-1.97-.914-2.582-.625-.628-1.536-.95-2.702-.95l-13.22.006c-1.167 0-2.078.32-2.706.948-.605.612-.915 1.479-.915 2.581v3.032c-1.509-.181-2.625-.1-2.712-.094A.493.493 0 000 9.982v9.744c0 .269.218.48.49.48 3.779 0 6.643 1.45 6.67 1.463.07.037.148.054.228.054.01 0 .02-.007.03-.007a.59.59 0 00.199-.047c.027-.014 2.89-1.462 6.672-1.462.272 0 .49-.215.49-.484V18.2h8.327c.272 0 .49-.215.49-.484a.49.49 0 00-.49-.484H14.78V16.22h5.223z" fill="#5CB615" fill-rule="nonzero"/></svg>
